logo/pluralsight-icon.svg

<?xml version="1.0" encoding="UTF-8"?>
<svg width="256px" height="256px" viewBox="0 0 256 256" version="1.1" xmlns="http://www.w3.org/2000/svg" preserveAspectRatio="xMidYMid">
    <title>Pluralsight</title>
    <defs>
        <linearGradient x1="49.9986825%" y1="1.57575758%" x2="49.9986825%" y2="100.442688%" id="pluralsightLinearGradient-1">
            <stop stop-color="#DF5430" offset="0%"></stop>
            <stop stop-color="#D7197E" offset="100%"></stop>
        </linearGradient>
    </defs>
    <g>
        <path d="M256,128 C256,198.695125 198.68989,256 127.996627,256 C57.3033649,256 0,198.695125 0,128 C0,57.3048748 57.3033649,0 127.996627,0 C198.68989,0 256,57.3048748 256,128" fill="url(#pluralsightLinearGradient-1)"></path>
        <path d="M95.0918816,61.4788543 L95.0918816,194.507655 L210.298964,127.996627 L95.0918816,61.4788543 Z M106.12084,80.5822244 L188.241048,127.996627 L106.12084,175.41103 L106.12084,80.5822244 L106.12084,80.5822244 Z" fill="#FFFFFE"></path>
        <path d="M68.6088904,76.0020026 L68.6088904,179.984506 L158.655108,127.989882 L68.6088904,76.0020026 Z M79.6378488,95.1053727 L136.603937,127.989882 L79.6378488,160.887882 L79.6378488,95.1053727 L79.6378488,95.1053727 Z" fill="#FFFFFE"></path>
    </g>
</svg>

<svg viewBox="0 0 256 256" xmlns="http://www.w3.org/2000/svg"><defs><linearGradient id="a" x1="49.998%" x2="49.998%" y1="1.575%" y2="100.442%"><stop offset="0%" stop-color="#DF5430"/><stop offset="100%" stop-color="#D7197E"/></linearGradient></defs><path fill="url(#a)" d="M256 128c0 70.69-57.32 128-128.01 128 -70.7 0-128-57.31-128-128 0-70.7 57.3-128 127.99-128s128 57.3 128 128"/><g fill="#FFFFFE"><path d="M95.09 61.47v133.02l115.2-66.52L95.08 61.45Zm11.02 19.1l82.12 47.41 -82.13 47.41V80.56v0Z"/><path d="M68.6 76v103.98l90.04-52L68.59 75.99Zm11.02 19.1l56.96 32.88 -56.97 32.89V95.08v0Z"/></g></svg>
